X:2981
T:Jenny Baubee Two. WM099
O:england
M:4/4
L:1/4
Q:140
C:
S:Wm.Mittell,1799
R:Reel
A:Kent
N:Not the usual, if I've read right
W:Hands across and back again,lead down ye middle,up and right and left
K:G
dd/c/BG|AA/G/FD|dd/c/BG|DFG2:|
|:ABcA|EA/G/ F/E/D|defg|d/c/B/A/G2:|]


